X: 31371
T: COTILLION No. 27. CONCORD SETT tune 4
C:
%R: jig
B: Elias Howe "The Musician's Companion" Part 3 1844 p.137 #1
S: http://imslp.org/wiki/The_Musician's_Companion_(Howe,_Elias)
Z: 2015 John Chambers <jc:trillian.mit.edu>
M: 6/8
L: 1/8
K: F
% - - - - - - - - - - - - - - - - - - - - - - - - - - - - -
c/B/ |\
A2c B2c | Afe gfd | c2A c2A | G3 z2c/B/ |\
A2c B2c | Afe gfd | c2A BGE | G3 F2 H|]
A |\
G2c B2d | c2e G2c | A2f fdB | d3 c2A |\
G2c B2d | c2e g2e | g2e fdB | d3 c2=B/"^D.C."_B/ |
A |\
def ed^c | def ed^c | def def | e2a a2A |\
def efg | fgb gab | agf ed^c | ^c2 "^D.C."d3 |]
% - - - - - - - - - - Dance description - - - - - - - - - -
%%begintext align
%% Ladies all cross hands,
%% round and back,
%% give other hand to partners,
%% all balance and turn partners, &c.
%%endtext
% - - - - - - - - - - - - - - - - - - - - - - - - - - - - -
%%sep 1 1 300
